**kern	**kern
*part1	*part1
*staff2	*staff1
*I"Piano	*
*clefF4	*clefG2
*k[f#c#g#d#]	*k[f#c#g#d#]
=1	=1
8EL	2b
8G#	.
8B	.
8e	.
8B	4b#X
8G#J	.
=	=
8D#L	4cc#
8F#	.
8A	4dd#
8B	.
8A	4cc#
8F#J	.
=	=
8BBL	2a
8D#	.
8F#	.
8B	.
8F#	4a
8D#J	.
=	=
2EE 2E	8g#L
.	8B
.	8e
.	8g#
4DD# 4D#	8e
.	8BJ
=	=
2CC# 2C#	8bL
.	8c#
.	8e
.	8a
4BBB 4BB	8e
.	8g#J
=	=
*	*^
4AAA 4AA	8g#L	4c#
.	8f#J	.
2BBB 2BB	4e	4B
.	4d#	4A
*	*v	*v
=	=
2EE 2E	2G# 2e
4r	4r
==	==
*-	*-
!!!system-decoration: {(s1,s2)}
